dist/img/sprites/vk-f.svg

<svg width="25" height="24" viewBox="0 0 25 24" fill="none" xmlns="http://www.w3.org/2000/svg">
<g clip-path="url(#clip0_3001_10874)">
<path d="M12.4106 0.476562C6.04823 0.476562 0.890625 5.63416 0.890625 11.9966C0.890625 18.359 6.04823 23.5166 12.4106 23.5166C18.773 23.5166 23.9306 18.359 23.9306 11.9966C23.9306 5.63416 18.773 0.476562 12.4106 0.476562ZM16.841 13.4738C16.841 13.4738 17.8598 14.4794 18.1106 14.9462C18.1178 14.9558 18.1214 14.9654 18.1238 14.9702C18.2258 15.1418 18.2498 15.275 18.1994 15.3746C18.1154 15.5402 17.8274 15.6218 17.729 15.629H15.929C15.8042 15.629 15.5426 15.5966 15.2258 15.3782C14.9822 15.2078 14.7422 14.9282 14.5082 14.6558C14.159 14.2502 13.8566 13.8998 13.5518 13.8998C13.5131 13.8997 13.4746 13.9058 13.4378 13.9178C13.2074 13.9922 12.9122 14.321 12.9122 15.197C12.9122 15.4706 12.6962 15.6278 12.5438 15.6278H11.7194C11.4386 15.6278 9.97583 15.5294 8.67982 14.1626C7.09342 12.4886 5.66542 9.13096 5.65343 9.09976C5.56343 8.88256 5.74942 8.76616 5.95223 8.76616H7.77023C8.01263 8.76616 8.09183 8.91376 8.14703 9.04456C8.21183 9.19696 8.44943 9.80296 8.83943 10.4846C9.47183 11.5958 9.85943 12.047 10.1702 12.047C10.2285 12.0463 10.2857 12.0315 10.337 12.0038C10.7426 11.7782 10.667 10.3322 10.649 10.0322C10.649 9.97576 10.6478 9.38536 10.4402 9.10216C10.2914 8.89696 10.0382 8.81896 9.88463 8.79016C9.94679 8.70438 10.0287 8.63482 10.1234 8.58736C10.4018 8.44816 10.9034 8.42776 11.4014 8.42776H11.6786C12.2186 8.43496 12.3578 8.46976 12.5534 8.51896C12.9494 8.61376 12.9578 8.86936 12.923 9.74416C12.9122 9.99256 12.9014 10.2734 12.9014 10.6046C12.9014 10.6766 12.8978 10.7534 12.8978 10.835C12.8858 11.2802 12.8714 11.7854 13.1858 11.993C13.2268 12.0187 13.2742 12.0324 13.3226 12.0326C13.4318 12.0326 13.7606 12.0326 14.651 10.505C14.9256 10.0133 15.1643 9.50233 15.365 8.97616C15.383 8.94496 15.4358 8.84896 15.4982 8.81176C15.5443 8.78829 15.5953 8.77634 15.647 8.77696H17.7842C18.017 8.77696 18.1766 8.81176 18.2066 8.90176C18.2594 9.04456 18.197 9.48016 17.2214 10.8014L16.7858 11.3762C15.9014 12.5354 15.9014 12.5942 16.841 13.4738Z" fill="#0F582D"/>
</g>
<defs>
<clipPath id="clip0_3001_10874">
<rect width="24" height="24" fill="white" transform="translate(0.410156)"/>
</clipPath>
</defs>
</svg>

<svg width="25" height="24" viewBox="0 0 25 24" fill="none" xmlns="http://www.w3.org/2000/svg"><g clip-path="url(#clip0_3001_10874)"><path d="M12.41.477C6.049.477.89 5.634.89 11.997c0 6.362 5.158 11.52 11.52 11.52 6.363 0 11.52-5.158 11.52-11.52 0-6.363-5.157-11.52-11.52-11.52zm4.431 12.997s1.019 1.005 1.27 1.472c.007.01.01.02.013.024.102.172.126.305.075.405-.084.165-.372.247-.47.254h-1.8c-.125 0-.386-.032-.703-.25-.244-.171-.484-.45-.718-.723-.349-.406-.651-.756-.956-.756a.365.365 0 00-.114.018c-.23.074-.526.403-.526 1.279 0 .274-.216.43-.368.43h-.825c-.28 0-1.743-.098-3.04-1.464C7.094 12.489 5.666 9.13 5.654 9.1c-.09-.217.096-.334.3-.334H7.77c.243 0 .322.148.377.279.065.152.302.758.692 1.44.633 1.11 1.02 1.562 1.331 1.562a.36.36 0 00.167-.043c.406-.226.33-1.672.312-1.972 0-.056-.001-.647-.209-.93-.149-.205-.402-.283-.555-.312a.66.66 0 01.238-.203c.279-.139.78-.16 1.278-.16h.278c.54.008.679.043.874.092.396.095.405.35.37 1.225-.01.249-.022.53-.022.86 0 .073-.003.15-.003.231-.012.445-.027.95.288 1.158a.26.26 0 00.137.04c.109 0 .438 0 1.328-1.528.275-.492.513-1.003.714-1.529.018-.031.07-.127.133-.164a.32.32 0 01.149-.035h2.137c.233 0 .393.035.423.125.052.143-.01.578-.986 1.9l-.435.574c-.885 1.16-.885 1.218.055 2.098z" fill="#0F582D"/></g><defs><clipPath id="clip0_3001_10874"><path fill="#fff" transform="translate(.41)" d="M0 0h24v24H0z"/></clipPath></defs></svg>
